packages/axiom-components/src/Pictogram/svgs/pie-chart.svg

<?xml version="1.0" encoding="UTF-8"?>
<svg width="16px" height="16px" viewBox="0 0 16 16" version="1.1" xmlns="http://www.w3.org/2000/svg" xmlns:xlink="http://www.w3.org/1999/xlink">
    <!-- Generator: Sketch 46.2 (44496) - http://www.bohemiancoding.com/sketch -->
    <title>Pie Chart</title>
    <desc>Created with Sketch.</desc>
    <defs></defs>
    <g id="Axiom-Icons" stroke="none" stroke-width="1" fill="none" fill-rule="evenodd">
        <g id="Pie-Chart" fill="#000000">
            <path d="M3.5,8 C3.5,5.515 5.515,3.5 8,3.5 L8.001,3.5 L8.001,0 C6.529,0 5.275,0.336 4.001,1.072 C0.175,3.281 -1.136,8.173 1.073,11.999 L4.119,10.24 C3.736,9.578 3.5,8.82 3.5,8" id="Path" fill-opacity="0.3"></path>
            <path d="M8,12.5 C6.335,12.5 4.897,11.585 4.119,10.24 L1.073,11.999 C1.809,13.273 2.727,14.191 4.001,14.927 C7.827,17.136 12.719,15.825 14.928,11.999 L11.881,10.24 C11.103,11.585 9.666,12.5 8,12.5" id="Path" fill-opacity="0.75"></path>
            <path d="M8.0007,0 L8.0007,3.5 C10.4857,3.5 12.4997,5.515 12.4997,8 C12.4997,8.82 12.2647,9.578 11.8817,10.24 L14.9287,11.999 C15.6637,10.725 15.9997,9.47 15.9997,7.999 C15.9997,3.581 12.4187,0 8.0007,0" id="Path"></path>
        </g>
    </g>
</svg>

<svg height="16" viewBox="0 0 16 16" width="16" xmlns="http://www.w3.org/2000/svg"><g fill-rule="evenodd"><path d="m3.5 8c0-2.485 2.015-4.5 4.5-4.5h.001v-3.5c-1.472 0-2.726.336-4 1.072-3.826 2.209-5.137 7.101-2.928 10.927l3.046-1.759c-.383-.662-.619-1.42-.619-2.24" fill-opacity=".3"/><path d="m8 12.5c-1.665 0-3.103-.915-3.881-2.26l-3.046 1.759c.736 1.274 1.654 2.192 2.928 2.928 3.826 2.209 8.718.898 10.927-2.928l-3.047-1.759c-.778 1.345-2.215 2.26-3.881 2.26" fill-opacity=".75"/><path d="m8.0007 0v3.5c2.485 0 4.499 2.015 4.499 4.5 0 .82-.235 1.578-.618 2.24l3.047 1.759c.735-1.274 1.071-2.529 1.071-4 0-4.418-3.581-7.999-7.999-7.999"/></g></svg>
